resources/icons/errors/generic.svg

<svg width="342" height="271" fill="none" xmlns="http://www.w3.org/2000/svg"><path d="M151.999 126.154v-10.818s-1.592-7.852-8.156-8.055c-6.565-.203-29.031 0-29.031 0s1.443 2.592 1.427 3.963c-.015 1.371 0 14.91 0 14.91h35.76z" fill="var(--icon-error-secondary-200, #EEF3F5)"/><path d="M255.467 223.215h22.694s.227-6.166-1.243-8.012c-1.471-1.846-3.771-5.349-5.328-5.465-1.558-.115-5.159-1.59-5.159-1.59h-2.355v-41.273s-3.68 7.104-8.879 9.367c-5.199 2.264-10.099 2.067-10.099 2.067s.512 9.476-.809 12.8c-1.321 3.325-5.373 11.08-6.216 12.329-.843 1.248-.613 1.843 1.326 1.882 1.94.039 6.026.743 8.959 2.565 2.934 1.822 6.744 4.963 7.109 8.363.364 3.4.769 4.033.719 4.543-.05.51-.719 2.424-.719 2.424zM264.247 85.274s-.702-10.559 2.294-14.48c2.996-3.923 11.878-14.136 12.492-19.563.614-5.428 1.904-11.973 0-14.654-1.904-2.682-5.534-2.15-6.439-2.014-.904.137 3.21 8.904-3.618 18.715-6.828 9.81-18.238 15.002-19.254 15.463-1.015.46-3.163 1.664 0 2.564 3.163.9 8.58 4.707 10.363 7.707 1.782 3 4.162 6.262 4.162 6.262z" fill="var(--icon-error-secondary-300, #DBDEE5)"/><path d="M298 112h-16m8-8v16m8 14h-16m8-8v16m8 14h-16m8-8v16m8 14h-16m8-8v16m30-8h-16m8-8v16m-14 14h-16m8-8v16m30-8h-16m8-8v16m30-8h-16m8-8v16m-36 14h-16m8-8v16m30-8h-16m8-8v16m30-8h-16m8-8v16m-36 14h-16m8-8v16m-36-8h-16m8-8v16m74-8h-16m8-8v16m-36-8h-16m8-8v16M37.073 153h-15.61m7.805-8v16m7.805 14h-15.61m7.805-8v16m7.805 14h-15.61m7.805-8v16M15.61 219H0m7.805-8v16m29.268-8h-15.61m7.805-8v16M15.61 241H0m7.805-8v16m29.268-8h-15.61m7.805-8v16m29.269-8h-15.61m7.805-8v16M80 241H64.39m7.805-8v16m-35.122 14h-15.61m7.805-8v16m29.269-8h-15.61m7.805-8v16M80 263H64.39m7.805-8v16m29.342-30h-15.61m7.805-8v16M123 241h-15.61m7.805-8v16" stroke="var(--icon-error-secondary-300, #DBDEE5)" stroke-width="2"/><path d="M201.294 223.246H91.842" stroke="var(--icon-error-secondary-300, #DBDEE5)" stroke-width="2" stroke-linecap="round"/><path d="M279.322 38.533c-.837 2.605-4.231-1.13-4.171-3.547.061-2.418 5.008.941 4.171 3.547z" fill="var(--icon-error-primary-600, #DE5846)"/><path d="M162 125.154c14.291-19.543 41-36.598 41-69s12.474-37.74 19-41c1.433-.716 5.45-10.043 6-12 .55-1.958 3.566-3.663 6 0 2.178 3.277 5 8 5 8s24.327.03 33 23c.396 1.05 4.644-.14 6 1 1.356 1.14 6.216 15.258-7 30-3.174 3.54-7 6.297-7 22v121s14-.269 14 13v1h-16" stroke="var(--icon-error-secondary-900, #212225)" stroke-width="2" stroke-linecap="round"/><path d="M226.242 146.586c11.571 8.143 18.757 21.344 18.757 36.568 0 8.995-3.341 14.763-7.887 21.793M237 205.154c6.706 0 17.203 2.292 19 14 .168 1.093 0 3 0 3l-27.975.092M272.114 34.388S280.44 58.935 241 72.154M220.895 15.867s5.561-1.414 8.105-3.713M264 85.154s-5.014-11.997-17-15M208.636 125.976c-2.705-3.929-4.686-11.811-2.637-17.822M260.89 31.555s-2.604-2.2-8.058 0M245 178.582s15.492-.463 19.004-13.09" stroke="var(--icon-error-secondary-900, #212225)" stroke-width="2" stroke-linecap="round"/><path d="M116 126.154h100c5.523 0 10 4.477 10 10v77M59 127.154v-16c0-5.523 4.477-10 10-10h37c5.523 0 10 4.477 10 10v16" stroke="var(--icon-error-secondary-300, #DBDEE5)" stroke-width="2"/><path d="M115 107.154h27c5.523 0 10 4.477 10 10v10" stroke="var(--icon-error-secondary-300, #DBDEE5)" stroke-width="2"/><path d="M116 125.154a1 1 0 000 2v-2zm109 37a1 1 0 002 0h-2zm-167 51a1 1 0 002 0h-2zm2-86a1 1 0 00-2 0h2zm56 0h100v-2H116v2zm100 0a9 9 0 019 9h2c0-6.075-4.925-11-11-11v2zm9 9v26h2v-26h-2zm-165 77v-86h-2v86h2z" fill="var(--icon-error-secondary-300, #DBDEE5)"/><mask id="a" fill="#fff"><path fill-rule="evenodd" clip-rule="evenodd" d="M174 171.154v-4h4v4h-4zm-8 0v-4h4v4h-4zm-48 0v-4h4v4h-4zm-8 0v-4h4v4h-4zm60-4v-4h4v4h-4zm-56 0v-4h4v4h-4zm60-4v-4h4v4h-4zm-8 0v-4h4v4h-4zm-48 0v-4h4v4h-4zm-8 0v-4h4v4h-4z"/></mask><path d="M174 171.154h-2v2h2v-2zm0-4v-2h-2v2h2zm4 0h2v-2h-2v2zm0 4v2h2v-2h-2zm-12 0h-2v2h2v-2zm0-4v-2h-2v2h2zm4 0h2v-2h-2v2zm0 4v2h2v-2h-2zm-52 0h-2v2h2v-2zm0-4v-2h-2v2h2zm4 0h2v-2h-2v2zm0 4v2h2v-2h-2zm-12 0h-2v2h2v-2zm0-4v-2h-2v2h2zm4 0h2v-2h-2v2zm0 4v2h2v-2h-2zm56-4h-2v2h2v-2zm0-4v-2h-2v2h2zm4 0h2v-2h-2v2zm0 4v2h2v-2h-2zm-60 0h-2v2h2v-2zm0-4v-2h-2v2h2zm4 0h2v-2h-2v2zm0 4v2h2v-2h-2zm56-4h-2v2h2v-2zm0-4v-2h-2v2h2zm4 0h2v-2h-2v2zm0 4v2h2v-2h-2zm-12 0h-2v2h2v-2zm0-4v-2h-2v2h2zm4 0h2v-2h-2v2zm0 4v2h2v-2h-2zm-52 0h-2v2h2v-2zm0-4v-2h-2v2h2zm4 0h2v-2h-2v2zm0 4v2h2v-2h-2zm-12 0h-2v2h2v-2zm0-4v-2h-2v2h2zm4 0h2v-2h-2v2zm0 4v2h2v-2h-2zm62 8v-4h-4v4h4zm-2-2h4v-4h-4v4zm2-2v4h4v-4h-4zm2 2h-4v4h4v-4zm-10 2v-4h-4v4h4zm-2-2h4v-4h-4v4zm2-2v4h4v-4h-4zm2 2h-4v4h4v-4zm-50 2v-4h-4v4h4zm-2-2h4v-4h-4v4zm2-2v4h4v-4h-4zm2 2h-4v4h4v-4zm-10 2v-4h-4v4h4zm-2-2h4v-4h-4v4zm2-2v4h4v-4h-4zm2 2h-4v4h4v-4zm58-2v-4h-4v4h4zm-2-2h4v-4h-4v4zm2-2v4h4v-4h-4zm2 2h-4v4h4v-4zm-58 2v-4h-4v4h4zm-2-2h4v-4h-4v4zm2-2v4h4v-4h-4zm2 2h-4v4h4v-4zm58-2v-4h-4v4h4zm-2-2h4v-4h-4v4zm2-2v4h4v-4h-4zm2 2h-4v4h4v-4zm-10 2v-4h-4v4h4zm-2-2h4v-4h-4v4zm2-2v4h4v-4h-4zm2 2h-4v4h4v-4zm-50 2v-4h-4v4h4zm-2-2h4v-4h-4v4zm2-2v4h4v-4h-4zm2 2h-4v4h4v-4zm-10 2v-4h-4v4h4zm-2-2h4v-4h-4v4zm2-2v4h4v-4h-4zm2 2h-4v4h4v-4z" mask="url(#a)"/><path d="M133 190.154h24M75.617 206.154H108.5a8.5 8.5 0 110 17h-53a8.5 8.5 0 010-17h2.587" stroke="var(--icon-error-secondary-900, #212225)" stroke-width="2"/></svg>

<svg width="342" height="271" viewBox="0 0 342 271" fill="none" xmlns="http://www.w3.org/2000/svg">
<path d="M151.999 126.154V115.336C151.999 115.336 150.407 107.484 143.843 107.281C137.278 107.078 114.812 107.281 114.812 107.281C114.812 107.281 116.255 109.873 116.239 111.244C116.224 112.615 116.239 126.154 116.239 126.154H151.999Z" fill="var(--icon-error-secondary-200, #EEF3F5)"/>
<path d="M255.467 223.215H278.161C278.161 223.215 278.388 217.049 276.918 215.203C275.447 213.357 273.147 209.854 271.59 209.738C270.032 209.623 266.431 208.148 266.431 208.148H264.076V166.875C264.076 166.875 260.396 173.979 255.197 176.242C249.998 178.506 245.098 178.309 245.098 178.309C245.098 178.309 245.61 187.785 244.289 191.109C242.968 194.434 238.916 202.189 238.073 203.438C237.23 204.686 237.46 205.281 239.399 205.32C241.339 205.359 245.425 206.063 248.358 207.885C251.292 209.707 255.102 212.848 255.467 216.248C255.831 219.648 256.236 220.281 256.186 220.791C256.136 221.301 255.467 223.215 255.467 223.215L255.467 223.215Z" fill="var(--icon-error-secondary-300, #DBDEE5)"/>
<path d="M264.247 85.2738C264.247 85.2738 263.545 74.7152 266.541 70.7933C269.537 66.8714 278.419 56.6585 279.033 51.2308C279.647 45.8031 280.937 39.2582 279.033 36.5765C277.129 33.8949 273.499 34.4261 272.594 34.5628C271.69 34.6996 275.804 43.4671 268.976 53.2777C262.148 63.0882 250.738 68.2796 249.722 68.7406C248.707 69.2015 246.559 70.4046 249.722 71.305C252.885 72.2054 258.302 76.0121 260.085 79.0121C261.867 82.0121 264.247 85.2738 264.247 85.2738V85.2738Z" fill="var(--icon-error-secondary-300, #DBDEE5)"/>
<path d="M298 112H282M290 104V120M298 134H282M290 126V142M298 156H282M290 148V164M298 178H282M290 170V186M320 178H304M312 170V186M298 200H282M290 192V208M320 200H304M312 192V208M342 200H326M334 192V208M298 222H282M290 214V230M320 222H304M312 214V230M342 222H326M334 214V230M298 244H282M290 236V252M254 244H238M246 236V252M320 244H304M312 236V252M276 244H260M268 236V252M37.0732 153H21.4634M29.2683 145V161M37.0732 175H21.4634M29.2683 167V183M37.0732 197H21.4634M29.2683 189V205M15.6098 219H0M7.80488 211V227M37.0732 219H21.4634M29.2683 211V227M15.6098 241H0M7.80488 233V249M37.0732 241H21.4634M29.2683 233V249M58.5366 241H42.9268M50.7317 233V249M80 241H64.3902M72.1951 233V249M37.0732 263H21.4634M29.2683 255V271M58.5366 263H42.9268M50.7317 255V271M80 263H64.3902M72.1951 255V271M101.537 241H85.9268M93.7317 233V249M123 241H107.39M115.195 233V249" stroke="var(--icon-error-secondary-300, #DBDEE5)" stroke-width="2"/>
<path d="M201.294 223.246H91.8418" stroke="var(--icon-error-secondary-300, #DBDEE5)" stroke-width="2" stroke-linecap="round"/>
<path d="M279.322 38.5327C278.485 41.1382 275.091 37.4038 275.151 34.9858C275.212 32.5678 280.159 35.9272 279.322 38.5327V38.5327Z" fill="var(--icon-error-primary-600, #DE5846)"/>
<path d="M162 125.154C176.291 105.611 203 88.5559 203 56.1539C203 23.7519 215.474 18.4149 222 15.1539C223.433 14.4376 227.45 5.11129 228 3.15389C228.55 1.19649 231.566 -0.508508 234 3.15389C236.178 6.43129 239 11.1539 239 11.1539C239 11.1539 263.327 11.1849 272 34.1539C272.396 35.2032 276.644 34.0134 278 35.1539C279.356 36.2944 284.216 50.4125 271 65.1539C267.826 68.6948 264 71.4508 264 87.1539C264 102.857 264 208.154 264 208.154C264 208.154 278 207.885 278 221.154C278 221.945 278 222.154 278 222.154H262" stroke="var(--icon-error-secondary-900, #212225)" stroke-width="2" stroke-linecap="round" fill="none"/>
<path d="M226.242 146.586C237.813 154.729 244.999 167.93 244.999 183.154C244.999 192.149 241.658 197.917 237.112 204.947" stroke="var(--icon-error-secondary-900, #212225)" stroke-width="2" stroke-linecap="round" fill="none"/>
<path d="M237 205.154C243.706 205.154 254.203 207.446 256 219.154C256.168 220.247 256 222.154 256 222.154L228.025 222.246" stroke="var(--icon-error-secondary-900, #212225)" stroke-width="2" stroke-linecap="round" fill="none"/>
<path d="M272.114 34.3882C272.114 34.3882 280.44 58.9351 241 72.1538" stroke="var(--icon-error-secondary-900, #212225)" stroke-width="2" stroke-linecap="round" fill="none"/>
<path d="M220.895 15.8667C220.895 15.8667 226.456 14.4531 229 12.1538" stroke="var(--icon-error-secondary-900, #212225)" stroke-width="2" stroke-linecap="round" fill="none"/>
<path d="M264 85.1538C264 85.1538 258.986 73.1568 247 70.1538" stroke="var(--icon-error-secondary-900, #212225)" stroke-width="2" stroke-linecap="round" fill="none"/>
<path d="M208.636 125.976C205.931 122.047 203.95 114.165 205.999 108.154" stroke="var(--icon-error-secondary-900, #212225)" stroke-width="2" stroke-linecap="round" fill="none"/>
<path d="M260.89 31.5546C260.89 31.5546 258.286 29.3554 252.832 31.5546" stroke="var(--icon-error-secondary-900, #212225)" stroke-width="2" stroke-linecap="round" fill="none"/>
<path d="M245 178.582C245 178.582 260.492 178.119 264.004 165.492" stroke="var(--icon-error-secondary-900, #212225)" stroke-width="2" stroke-linecap="round" fill="none"/>
<path d="M116 126.154H216C221.523 126.154 226 130.631 226 136.154V213.154" stroke="var(--icon-error-secondary-300, #DBDEE5)" stroke-width="2" fill="none"/>
<path d="M59 127.154V111.154C59 105.631 63.4771 101.154 69 101.154H106C111.523 101.154 116 105.631 116 111.154V127.154" stroke="var(--icon-error-secondary-300, #DBDEE5)" stroke-width="2" fill="none"/>
<path d="M115 107.154H142C147.523 107.154 152 111.631 152 117.154V127.154" stroke="var(--icon-error-secondary-300, #DBDEE5)" stroke-width="2" fill="none"/>
<path d="M116 125.154C115.448 125.154 115 125.602 115 126.154C115 126.706 115.448 127.154 116 127.154V125.154ZM225 162.154C225 162.706 225.448 163.154 226 163.154C226.552 163.154 227 162.706 227 162.154H225ZM58 213.154C58 213.706 58.4477 214.154 59 214.154C59.5523 214.154 60 213.706 60 213.154H58ZM60 127.154C60 126.602 59.5523 126.154 59 126.154C58.4477 126.154 58 126.602 58 127.154H60ZM116 127.154H216V125.154H116V127.154ZM216 127.154C220.971 127.154 225 131.183 225 136.154H227C227 130.079 222.075 125.154 216 125.154V127.154ZM225 136.154V162.154H227V136.154H225ZM60 213.154V127.154H58V213.154H60Z" fill="var(--icon-error-secondary-300, #DBDEE5)"/>
<mask id="keep_path-20-inside-1_1325_58296" fill="white">
<path fill-rule="evenodd" clip-rule="evenodd" d="M174 171.154V167.154H178V171.154H174ZM166 171.154V167.154H170V171.154H166ZM118 171.154V167.154H122V171.154H118ZM110 171.154V167.154H114V171.154H110ZM170 167.154V163.154H174V167.154H170ZM114 167.154V163.154H118V167.154H114ZM174 163.154V159.154H178V163.154H174ZM166 163.154V159.154H170V163.154H166ZM118 163.154V159.154H122V163.154H118ZM110 163.154V159.154H114V163.154H110Z"/>
</mask>
<path d="M174 171.154H172V173.154H174V171.154ZM174 167.154V165.154H172V167.154H174ZM178 167.154H180V165.154H178V167.154ZM178 171.154V173.154H180V171.154H178ZM166 171.154H164V173.154H166V171.154ZM166 167.154V165.154H164V167.154H166ZM170 167.154H172V165.154H170V167.154ZM170 171.154V173.154H172V171.154H170ZM118 171.154H116V173.154H118V171.154ZM118 167.154V165.154H116V167.154H118ZM122 167.154H124V165.154H122V167.154ZM122 171.154V173.154H124V171.154H122ZM110 171.154H108V173.154H110V171.154ZM110 167.154V165.154H108V167.154H110ZM114 167.154H116V165.154H114V167.154ZM114 171.154V173.154H116V171.154H114ZM170 167.154H168V169.154H170V167.154ZM170 163.154V161.154H168V163.154H170ZM174 163.154H176V161.154H174V163.154ZM174 167.154V169.154H176V167.154H174ZM114 167.154H112V169.154H114V167.154ZM114 163.154V161.154H112V163.154H114ZM118 163.154H120V161.154H118V163.154ZM118 167.154V169.154H120V167.154H118ZM174 163.154H172V165.154H174V163.154ZM174 159.154V157.154H172V159.154H174ZM178 159.154H180V157.154H178V159.154ZM178 163.154V165.154H180V163.154H178ZM166 163.154H164V165.154H166V163.154ZM166 159.154V157.154H164V159.154H166ZM170 159.154H172V157.154H170V159.154ZM170 163.154V165.154H172V163.154H170ZM118 163.154H116V165.154H118V163.154ZM118 159.154V157.154H116V159.154H118ZM122 159.154H124V157.154H122V159.154ZM122 163.154V165.154H124V163.154H122ZM110 163.154H108V165.154H110V163.154ZM110 159.154V157.154H108V159.154H110ZM114 159.154H116V157.154H114V159.154ZM114 163.154V165.154H116V163.154H114ZM176 171.154V167.154H172V171.154H176ZM174 169.154H178V165.154H174V169.154ZM176 167.154V171.154H180V167.154H176ZM178 169.154H174V173.154H178V169.154ZM168 171.154V167.154H164V171.154H168ZM166 169.154H170V165.154H166V169.154ZM168 167.154V171.154H172V167.154H168ZM170 169.154H166V173.154H170V169.154ZM120 171.154V167.154H116V171.154H120ZM118 169.154H122V165.154H118V169.154ZM120 167.154V171.154H124V167.154H120ZM122 169.154H118V173.154H122V169.154ZM112 171.154V167.154H108V171.154H112ZM110 169.154H114V165.154H110V169.154ZM112 167.154V171.154H116V167.154H112ZM114 169.154H110V173.154H114V169.154ZM172 167.154V163.154H168V167.154H172ZM170 165.154H174V161.154H170V165.154ZM172 163.154V167.154H176V163.154H172ZM174 165.154H170V169.154H174V165.154ZM116 167.154V163.154H112V167.154H116ZM114 165.154H118V161.154H114V165.154ZM116 163.154V167.154H120V163.154H116ZM118 165.154H114V169.154H118V165.154ZM176 163.154V159.154H172V163.154H176ZM174 161.154H178V157.154H174V161.154ZM176 159.154V163.154H180V159.154H176ZM178 161.154H174V165.154H178V161.154ZM168 163.154V159.154H164V163.154H168ZM166 161.154H170V157.154H166V161.154ZM168 159.154V163.154H172V159.154H168ZM170 161.154H166V165.154H170V161.154ZM120 163.154V159.154H116V163.154H120ZM118 161.154H122V157.154H118V161.154ZM120 159.154V163.154H124V159.154H120ZM122 161.154H118V165.154H122V161.154ZM112 163.154V159.154H108V163.154H112ZM110 161.154H114V157.154H110V161.154ZM112 159.154V163.154H116V159.154H112ZM114 161.154H110V165.154H114V161.154Z" fill="var(--icon-error-secondary-900, #212225)" mask="url(#keep_path-20-inside-1_1325_58296)" fill="none"/>
<path d="M133 190.154H157" stroke="var(--icon-error-secondary-900, #212225)" stroke-width="2" fill="none"/>
<path d="M75.6173 206.154H108.5C113.194 206.154 117 209.959 117 214.654C117 219.348 113.194 223.154 108.5 223.154H55.5C50.8055 223.154 47 219.348 47 214.654C47 209.959 50.8055 206.154 55.5 206.154H58.0867" stroke="var(--icon-error-secondary-900, #212225)" stroke-width="2" fill="none"/>
</svg>
